X:374
T:Buck o' The Cabrach, The
C:James Scott Skinner
B:The Scottish Violinist
Z:Nigel Gatherer
L:1/8
M:12/8
K:A
e | cBA e2d cBA e2d | cBA aed cBA e2c | 
    dfd BdB cec AcA | dcB cBA EFG A2 :|
e | ac'a  gbg  faf  e2d  | c>BA aed  cBA B2e |
    a<c'a g<bg f<af e<ac | dcB  cBA  EFG Ace |
    abc'  bag  fga  gfe  | def  f<ad cBA BGE |
    ABc   dcB  cde  fga  | dcB  cBA  EFG A2 |]
<end>
<start>
